X: 5
T: Allegro from _Heroic Muse_
C: Georg Philipp Telemann
M: C
K: F
L:1/4
Q: 1/4=120
|: "C" c | "F" A/B/ c F f | "C" e/f/ g c b | "F" a g/f/ "Gm" g "C" e | "F" f3 "C" g |
"F" a A "A7" g G | "Dm" (f/e/) f (f/e/) f | "C" g G "G7" f F | "C" (e/d/) e (e/d/) e | "G7" f F "C" e E |
"G" d c/=B/ "C" c d | "C" G2 "G7" =B2 ({A/B/} | "C" c/)d/e/f/ "G" g z | "C" c/d/e/f/ "G" g =B |
"C" c>d "G" d>c | "C" c G/G/ "C" G G | "C" c3 :| "G" g | "C" e/f/ "Gm" g "A" ^c/d/ e |
"A" A ^c "A" e a | "Dm" f>e "A" e>d | "Dm" d3 "D" ^f |
"Gm" g/a/ b d "G" g | "C" e/f/ g c e | "F" f2 "C7" B2 | "F" A G/F/ "C" G e |
"F" f2 "C7" B2 | "F" A G/F/ "C" G "Bb" d | "F" c "Bb" B/A/ "Gm" B "C" G | "F" F/G/A/B/ "C" c z |
"F" F/G/A/B/ "C" c E | "F" F > "Bb" G "C7" G>F | "F" F c/c/ A c | "F" f3 :|
W: From p 34, _Baroque & Folk Tunes for the Recorder_
